!!!COM: Beethoven, Ludwig van
!!!CDT: 1770///-1827///
!!!OTL: Piano Sonata no. 5 in C Minor
!!!ODT: 1795///-1797///
!!!ODE: &agrave; la Comtesse de Browne
!!!OMD: Finale: Prestissimo
!!!OPS: 10
!!!ONM: 1
!!!OMV: 3
**kern	**kern	**dynam
*staff2	*staff1	*staff1/2
*Ipiano	*Ipiano	*Ipiano
*>[A,A,B]	*>[A,A,B]	*>[A,A,B]
*>norep[A,B]	*>norep[A,B]	*>norep[A,B]
*>A	*>A	*>A
*clefF4	*clefG2	*clefG2
*k[b-e-a-]	*k[b-e-a-]	*k[b-e-a-]
*c:	*c:	*c:
*met(c)	*met(c)	*met(c)
*M4/4	*M4/4	*M4/4
*MM180	*MM180	*MM180
(8C/	(8c/	p
8BBn\L	8Bn/L	.
8C\)	8c/)	.
8F'\	8f'/	.
8F'\J	8f'/J	.
=1	=1	=1
4E-\	4e-/	.
8r	8r	.
8C/	(8c/	.
8BBn\L	8Bn/L	.
8C\	8c/)	.
8A-'\	8a-'/	.
8A-'\J	8a-'/J	.
=2	=2	=2
4G\	4g/	.
4r	8r	.
.	(8c/	.
2r	8Bn/L	.
.	8c/)	.
.	8cc'/	.
.	8cc'/J	.
=3	=3	=3
1A- 1c 1f#	(4cc\	.
.	8ee-\L	.
.	8dd\J	.
.	8ff\L	.
.	8ee-\	.
.	8dd\	.
.	8cc\J)	.
=4	=4	=4
4G\ 4d\ 4g\	4bn\	.
8r	8r	.
(8GG/	(8G/	.
8FF#/L	8F#/L	.
8GG/)	8G/)	.
8C'/	8c'/	.
8C'/J	8c'/J	.
=5	=5	=5
4BBn/	4Bn/	.
8r	8r	.
(8GG/	(8G/	.
8FF#/L	8F#/L	.
8GG/)	8G/)	.
8E-'/	8e-'/	.
8E-'/J	8e-'/J	.
=6	=6	=6
4D\	4d/	.
8r	8r	.
8GG/	8G/	.
8BBn'\L	8Bn'/L	.
8D'\	8d'/	.
8Fn'\	8fn'/	.
8A-'\J	8a-'/J	.
*clefG2	*	*
=7	=7	=7
8Bn'/L	8bn'\L	.
8d'/	8dd'\	.
8f'/	8ff'\	.
8a-'/J	8aa-'\J	.
8g'/L	8gg'\L	.
8f'/	8ff'\	.
8e-'/	8ee-'\	.
8d'/J	8dd'\J	.
=8	=8	=8
8c/L	4cc\	.
8e-/ 8g/	.	.
8e-/ 8g/	8r	.
8e-/ 8g/J	(8cc\	.
8c/L	8bn\L	.
8en/ 8g/ 8b-/	8cc\)	.
8e/ 8g/ 8b-/	8ccc'\	.
8e/ 8g/ 8b-/J	8ccc'\J	.
=9	=9	=9
8c/L	4ccc\	.
8f/ 8a-/	.	.
8f/ 8a-/	8r	.
8f/ 8a-/J	(8fff\	.
8c/L	8eee-\L	.
8f/ 8a-/ 8bn/	8ddd\	.
8f/ 8a-/ 8b/	8ccc\	.
8f/ 8a-/ 8b/J	8bbn\J)	.
=10	=10	=10
8c/L	(8ddd\L	.
8e-/ 8g/	8ccc\J)	.
8e-/ 8g/	8r	.
8e-/ 8g/J	(8cc\	.
8c/L	8bn\L	.
8en/ 8g/ 8b-/	8cc\)	.
8e/ 8g/ 8b-/	8ccc'\	.
8e/ 8g/ 8b-/J	8ccc'\J	.
=11	=11	=11
8c/L	(4.ccc\	.
8f/ 8a-/	.	.
8f/ 8a-/	.	.
8f/ 8a-/J	8fff\	.
8c/L	8eee-\L	.
8f/ 8a-/ 8bn/	8ddd\	.
8f/ 8a-/ 8b/	8ccc\	.
8f/ 8a-/ 8b/J	8bbn\J)	.
=12	=12	=12
4c/ 4e-/ 4g/ 4cc/	(16ccc\LL	<
.	16ddd\	.
.	16ccc\	.
.	16bbn\JJ	.
8r	16ccc\LL	.
.	16eee-\	.
*clefF4	*	*
(8f#\	16ddd\	.
.	16ccc\JJ	.
4g\)	16bb\LL	.
.	16ccc\	.
.	16bb\	.
.	16aa-\JJ	.
8r	16gg\LL	.
.	16ff\	.
(8Bn\	16ee-\	.
.	16dd\JJ)	.
=13	=13	=13
4c\)	16cc\LL	.
.	16dd\	.
.	16cc\	.
.	16bn\JJ	.
8r	16cc\LL	.
.	16ee-\	.
(8F#\	16dd\	.
.	16cc\JJ	.
4G\)	16b\LL	.
.	16cc\	.
.	16b\	.
.	16a-\JJ	.
8r	16g/LL	.
.	16f/	.
(8BBn/	16e-/	.
.	16d/JJ	.
=14	=14	=14
4C/)	16c/LL	.
.	16d/	.
.	16c/	.
.	16Bn/JJ	.
8r	16c/LL	.
.	16e-/	.
(8FF#/	16d/	.
.	16c/JJ	.
4GG/)	16B/LL	f
.	16g/	.
.	16d/	.
.	16B/JJ	.
4CC'/ 4C'/	16G'/LL	.
.	16g/	.
.	16e-/	.
.	16c/JJ	.
=15	=15	=15
4GGG'/ 4GG'/	16G'/LL	.
.	16g/	.
.	16d/	.
.	16Bn/JJ	.
4CC'/ 4C'/	16G'/LL	.
.	16g/	.
.	16e-/	.
.	16c/JJ	.
4GGG'/ 4GG'/	16G/LL	.
.	16g/	.
.	16d/	.
.	16B/JJ	.
4CC'/ 4C'/	16G'/LL	f
.	16g/	.
.	16e-/	.
.	16c/JJ	.
=16	=16	=16
2GGG;/ 2BBBn;/ 2DD;/ 2GG;/	2G;/ 2Bn;/ 2d;/ 2g;/	.
2r	8r	.
.	8B-'/L	p
.	8c'/	.
.	8d'/J	.
=17	=17	=17
*	*^	*
2EE-/ 2E-/	2G\ 2B-\	8e-/L	.
.	.	8f/J	.
.	.	4g/	.
4AA-'\ 4A-'\	2r	4B-'/ 4d'/ 4fn'/	.
4GG'/ 4G'/	.	4B-'/ 4e-'/	.
*	*v	*v	*
=18	=18	=18
2FF/ 2C/ 2F/	2A-/ 2B-/ 2d/ 2a-/	.
*	*clefF4	*clefF4
2r	8r	.
.	8B-/L	.
.	8c/	.
.	8d/J	.
=19	=19	=19
*	*^	*
2EE-/ 2E-/	8e-'/L	2G\ 2B-\	.
.	8f'/J	.	.
.	4g'/	.	.
4AAA-'/ 4AA-'/	2r	4F'\ 4c'\ 4f'\	.
4AAAn'/ 4AAn'/	.	4F'\ 4c'\ 4e-'\	.
*	*v	*v	*
=20	=20	=20
2BBB-/ 2BB-/	2D\ 2F\ 2B-\	.
2r	8r	.
*	*clefG2	*clefG2
.	8B-'/L	.
.	8c'/	.
.	8d'/J	.
=21	=21	=21
*	*^	*
2EE-/ 2E-/	8e-'/L	2G\ 2B-\	.
.	8f'/J	.	.
.	4g/	.	.
4AA-'\ 4A-'\	4B-'/ 4d'/ 4f'/	2r	.
4GG'/ 4G'/	4B-'/ 4e-'/	.	.
*	*v	*v	*
=22	=22	=22
!	!cq/LLL	!.
!	!e-q/	!.
!	!a-q/JJJ	!.
4AA-\ 4C\ 4E-\ 4A-\	[2cc\	.
4r	.	.
2r	8cc\L]	.
.	8cc'\	.
.	8b-'\	.
.	8a-'\J	.
=23	=23	=23
*^	*^	*
[1BB-	2r	(8g/L	2r	.
.	.	8f/	.	.
.	.	8e-'/)	.	.
.	.	8d'/J	.	.
.	8r	(4c/	2F\ 2A-\	.
.	8BBB-'\L	.	.	.
.	8CC'\	4B-/)	.	.
.	8DD'\J	.	.	.
*	*	*v	*v	*
=24	=24	=24	=24
1BB-]	8EE-'\L	2E-/ 2G/ 2B-/	.
.	8FF'\J	.	.
.	4GG\	.	.
.	4FF\	8r	.
.	.	8b-'/L	.
.	4EE-\	8a-'/	.
.	.	8g'/J	.
=25	=25	=25	=25
*	*	*^	*
1BB-	2r	(8g/L	2r	.
.	.	8f/	.	.
.	.	8e-'/)	.	.
.	.	8d'/J	.	.
.	8r	(4c/	2F\ 2A-\	.
.	8BBB-'\L	.	.	.
.	8CC'\	4B-/)	.	.
.	8DD'\J	.	.	.
*	*	*v	*v	*
=26	=26	=26	=26
1BB-	8EE-\L	2E-/ 2G/ 2B-/	.
.	8FF\J	.	.
.	4GG\	.	.
.	4FF\	8r	.
.	.	8b-'\ 8bb-'\L	.
.	4EE-\	8a-'\ 8aa-'\	.
.	.	8g'\ 8gg'\J	.
*v	*v	*	*
=27	=27	=27
4AA-/ 4C/ 4F/	8g\ (8gg\L	.
.	8f\ 8ff\)	.
4r	8e-'\ 8ee-'\	.
.	8d'\ 8dd'\J	.
4BB-\ 4F\ 4A-\	8c'/ 8cc'/L	.
.	8B-'/ 8b-'/	.
4r	8c'/ 8cc'/	.
.	8d'/ 8dd'/J	.
=28	=28	=28
4E-\ 4G\	16e-/LL	.
.	16ee-/	.
.	16e-/	.
.	16ee-/JJ	.
8r	16e-/LL	.
.	16ee-/	.
(8E-\	16e-/	.
.	16ee-/JJ	.
8D\L	16e-/LL	.
.	16ee-/	.
8E-\)	16e-/	.
.	16ee-/JJ	.
8C'\ 8A-'\	16e-/LL	.
.	16ee-/	.
8C'\ 8A-'\J	16e-/	.
.	16ee-/JJ	.
=29	=29	=29
4BB-\ 4G\	16e-/LL	.
.	16ee-/	.
.	16e-/	.
.	16ee-/JJ	.
8r	16e-/LL	.
.	16ee-/	.
(8E-\	16e-/	.
.	16ee-/JJ	.
8D\L	16e-/LL	.
.	16ee-/	.
8E-\)	16e-/	.
.	16ee-/JJ	.
8A-'\ 8c'\	16e-/LL	.
.	16ee-/	.
8A-'\ 8c'\J	16e-/	.
.	16ee-/JJ	.
=30	=30	=30
8G\ 8B-\L	4e-/ 4ee-/	.
16E-\L	.	.
16e-\JJ	.	.
16E-\LL	8r	.
16e-\	.	.
16E-\	(8ee-\	.
16e-\JJ	.	.
16E-\LL	8dd\L	.
16e-\	.	.
16E-\	8ee-\)	.
16e-\JJ	.	.
16E-\LL	8aa-'\ 8ccc'\	.
16e-\	.	.
16E-\	8aa-'\ 8ccc'\J	.
16e-\JJ	.	.
=31	=31	=31
1D 1F 1A- 1B- 1d	4aa-\ [4ccc\	ff
.	(16ccc\LL]	.
.	16bb-\	.
.	16aa-\	.
.	16gg\JJ	.
.	16ff\LL	.
.	16ee-\	.
.	16dd\	.
.	16cc\JJ	.
.	16bn/LL	.
.	16b-/	.
.	16an/	.
.	16a-/JJ)	.
=32	=32	=32
4E-\ 4G\ 4B-\ 4e-\	12g/L	.
.	12a-/	.
.	12b-/J	.
4r	12a-/L	.
.	12g/	.
.	12f/J	.
2r	12e-/L	.
.	12d/	.
.	12c/J	.
.	12B-/L	.
.	12A-/	.
.	12G/J	.
=33	=33	=33
4AAA-'/ 4AA-'/	16r	.
.	(16F/LL	.
.	16A-/	.
.	16c/JJ	.
8r	4f'/)	.
8AAA-'/ 8AA-'/	.	.
4BBB-'/ 4BB-'/	16r	.
.	(16F/LL	.
.	16A-/	.
.	16B-/JJ	.
8r	4d'/)	.
8BBB-'/ 8BB-'/	.	.
*clefG2	*	*
=34	=34	=34
8r	16dd\LL	.
.	16ddd\	.
(16a-/LL	16dd\	.
16b-/JJ	16ddd\JJ	.
16cc/LL	16dd\LL	.
16b-/	16ddd\	.
16a-/	16dd\	.
16g/JJ)	16ddd\JJ	.
12f/L	16dd\LL	.
.	16ddd\	.
12e-/	.	.
.	16dd\	.
12d/J	.	.
.	16ddd\JJ	.
12c/L	16dd\LL	.
.	16ddd\	.
12B-/	.	.
.	16dd\	.
12A-/J	.	.
.	16ddd\JJ	.
*clefF4	*	*
=35	=35	=35
12G\L	16ee-\LL	.
.	16eee-\	.
12A-\	.	.
.	16ee-\	.
12B-\J	.	.
.	16eee-\JJ	.
12A-\L	16ee-\LL	.
.	16eee-\	.
12G\	.	.
.	16ee-\	.
12F\J	.	.
.	16eee-\JJ	.
12E-\L	16ee-\LL	.
.	16eee-\	.
12D\	.	.
.	16ee-\	.
12C\J	.	.
.	16eee-\JJ	.
12BB-/L	16een\LL	.
.	16eeen\	.
12AA-/	.	.
.	16ee\	.
12GG/J	.	.
.	16eee\JJ	.
=36	=36	=36
4AAA-'/ 4AA-'/	16r	.
.	(16ff\LL	.
.	16aa-\	.
.	16ccc\JJ	.
8r	4fff'\)	.
8AAA-'/ 8AA-'/	.	.
4BBB-'/ 4BB-'/	16r	.
.	(16dd\LL	.
.	16ff\	.
.	16aa-\JJ	.
8r	4ddd'\)	.
8BBB-'/ 8BB-'/	.	.
=37	=37	=37
4EE-'/ 4GG'/ 4BB-'/ 4E-'/	4ee-'\ 4gg'\ 4bb-'\ 4eee-'\	.
*clefG2	*	*
8en'/ 8g'/L	8bb-'\L	ff
8e'/ 8g'/J	8bb-'\J	.
4f'/ 4a-'/	4bb-'\	.
8e'/ 8g'/L	8bb-'\L	.
8e'/ 8g'/J	8bb-'\J	.
=38	=38	=38
4f'/ 4a-'/	4bb-'\	.
*clefF4	*	*
4BBB-'/ 4BB-'/	4F'/ 4A-'/ 4d'/	.
4r	4r	.
4BBBn'/ 4BBn'/	4F'/ 4A-'/ 4d'/	p
=39	=39	=39
4CC'/ 4C'/	4G'/ 4e-'/	.
4AAAn'/ 4AAn'/	4c'/ 4e-'/ 4f'/	.
4BBB-'/ 4BB-'/	4B-'/ 4e-'/ 4g'/	.
4BBB-'/ 4BB-'/	4A-'/ 4d'/ 4f'/	.
=40	=40	=40
4EE-'/ 4E-'/	4G'/ 4e-'/	.
*clefG2	*	*
8en'/ 8g'/L	(16bb-\LL	ff
.	16ccc\	.
8e'/ 8g'/J	16bb-\	.
.	16aan\JJ)	.
4f'/ 4a-'/	4bb-'\	.
8e'/ 8g'/L	(16bb-\LL	.
.	16ccc\	.
8e'/ 8g'/J	16bb-\	.
.	16aa\JJ)	.
=41	=41	=41
4f/ 4a-/	4bb-'\	.
*clefF4	*	*
4BBB-/ 4BB-/	4F/ 4A-/ 4d/	.
4r	4r	.
[4CC-/ [4EE-/ [4GG-/ [4C-/	[4E-/ [4G-/ [4An/ [4e-/	ff
=42	=42	=42
4CC-/] 4EE-/] 4GG-/] 4C-/]	4E-/] 4G-/] 4A/] 4e-/]	.
4AAAn'/ 4AAn'/	4cn'/ 4e-'/ 4f'/	p
4BBB-'/ 4BB-'/	4B-'/ 4e-'/ 4gn'/	.
4BBB-'/ 4BB-'/	4A-'/ 4d'/ 4f'/	.
=43	=43	=43
(8EE-/L	4G'/ 4e-'/	.
8E-/J)	.	.
4r	(8d/ 8a-/L	.
.	8e-/) 8g/J	.
(8EE-/L	4r	.
8E-/J)	.	.
4r	8a-\ (8dd\L	.
.	8g\ 8ee-\J)	.
=44	=44	=44
(8EE-/L	4r	.
8E-/J)	.	.
4r	8dd\ (8aa-\L	.
.	8ee-\ 8gg\J)	.
(8EE-/L	4r	.
8E-/J)	.	.
4r	8aa-\ (8ddd\L	.
.	8gg\ 8eee-\J)	.
=45	=45	=45
4EE-/	4r	.
4r	4G'/ 4B-'/ 4e-'/	.
2r	2r	.
=46	=46	=46
4r	4r	.
8r	8r	.
=:|!	=:|!	=:|!
*>B	*>B	*>B
(8BB-/	8r	.
8AAn\L	2r	.
8BB-\)	.	.
8G'\ 8B-'\	.	.
8G'\ 8B-'\J	.	.
=47	=47	=47
1G 1B-	4r	.
.	8r	.
.	(8e-/	p
.	8d/L	.
.	8e-/)	.
.	8b-'/	.
.	8b-'/J	.
=48	=48	=48
4A-\ 4B-\	(8c#/L	.
.	8d/)	.
8r	8b-'/	.
(8BB-/	8b-'/J	.
8AAn\L	2r	.
8BB-\)	.	.
8A-'\ 8B-'\	.	.
8A-'\ 8B-'\J	.	.
=49	=49	=49
1B-	4r	.
.	8r	.
.	(8f/	p
.	8en/L	.
.	8f/)	.
.	8b-'/	.
.	8b-'/J	.
=50	=50	=50
4G'\ 4B-'\	(8d#/L	.
.	8en/)	.
4r	8b-'/	.
.	8b-'/J	.
4F'\ 4B-'\ 4d-'\	(8e/L	.
.	8f/)	.
4r	8dd-'/	.
.	8dd-'/J	.
=51	=51	=51
4En'\ 4G'\ 4B-'\ 4c'\	(8f#/L	.
.	8g/)	.
4r	8dd-'/	.
.	8dd-'/J	.
2r	(8cc\L	.
.	8b-\	.
.	8an\	.
.	8b-\J)	.
=52	=52	=52
4F\ 4A-\ 4c\	8g\L	.
.	8a-\	.
4r	8ffn'\	.
.	8ff'\J	<
4E-\ 4F\ 4A-\ 4c\	(8bn\L	.
.	8cc\)	.
4r	8aa-'\	.
.	8aa-'\J	.
=53	=53	=53
4D'\ 4F'\ 4A-'\ 4Bn'\	(8een\L	.
.	8ff\)	.
4r	8bbn'\	.
.	8bb'\J	.
4C'\ 4D'\ 4F'\ 4A-'\	(8gg\L	.
.	8aa-\)	.
4r	8ddd'\	.
.	8ddd'\J	.
=54	=54	=54
4BBn\ 4D\ 4F\ 4A-\	(8ccc#\L	ff
.	8ddd\)	.
4r	8fff'\	.
.	8fff'\J	.
*clefG2	*	*
8r	2fff\	.
8aa-\L	.	.
8aa-\	.	.
8aa-\J	.	.
=55	=55	=55
2bn\	8r	.
.	8a-/L	.
.	8a-/	.
.	8a-/J	.
*clefF4	*	*
8r	2Bn/	.
8A-\L	.	.
8A-\	.	.
8A-\J	.	.
*	*clefF4	*clefF4
=56	=56	=56
8BBn\L	8r	.
8A-\	8AA-/L	.
8A-\	8AA-/	.
8A-\J	8AA-/J	.
8BB\L	8BBBn/L	.
8A-\	8AA-/	.
8A-\	8AA-/	.
8A-\J	8AA-/J	.
=57	=57	=57
4.BBn;/	4.BBBn/	.
*	*clefG2	*clefG2
8C/	(8c/	p
8BB\L	8Bn/L	.
8C\	8c/)	.
8F'\	8f'/	.
8F'\J	8f'/J	.
=58	=58	=58
4E-\	4e-/	.
8r	8r	.
8C/	(8c/	.
8BBn\L	8Bn/L	.
8C\	8c/)	.
8A-'\	8a-'/	.
8A-'\J	8a-'/J	.
=59	=59	=59
4G\	4g/	.
4r	8r	.
.	(8c/	.
2r	8Bn/L	.
.	8c/)	.
.	8cc'/	.
.	8cc'/J	.
=60	=60	=60
1A- 1c 1f#	(4cc\	.
.	8ee-\L	.
.	8dd\J	.
.	8ff\L	.
.	8ee-\	.
.	8dd\	.
.	8cc\J)	.
=61	=61	=61
4G\ 4d\ 4g\	4bn\	.
8r	8r	.
(8GG/	(8G/	.
8FF#/L	8F#/L	.
8GG/)	8G/)	.
8C'/	8c'/	.
8C'/J	8c'/J	.
=62	=62	=62
4BBn/	4Bn/	.
8r	8r	.
(8GG/	(8G/	.
8FF#/L	8F#/L	.
8GG/)	8G/)	.
8E-'/	8e-'/	.
8E-'/J	8e-'/J	.
=63	=63	=63
4D\	4d/	.
8r	8r	.
8GG/	8G/	.
8BBn'\L	8Bn'/L	.
8D'\	8d'/	.
8Fn'\	8fn'/	.
8A-'\J	8a-'/J	.
*clefG2	*	*
=64	=64	=64
8Bn'/L	8bn'\L	.
8d'/	8dd'\	.
8f'/	8ff'\	.
8a-'/J	8aa-'\J	.
8g'/L	8gg'\L	.
8f'/	8ff'\	.
8e-'/	8ee-'\	.
8d'/J	8dd'\J	.
=65	=65	=65
8c/L	4cc\	.
8e-/ 8g/	.	.
8e-/ 8g/	8r	.
8e-/ 8g/J	(8cc\	.
8c/L	8bn\L	.
8en/ 8g/ 8b-/	8cc\)	.
8e/ 8g/ 8b-/	8ccc'\	.
8e/ 8g/ 8b-/J	8ccc'\J	.
=66	=66	=66
8c/L	4ccc\	.
8f/ 8a-/	.	.
8f/ 8a-/	8r	.
8f/ 8a-/J	(8fff\	.
8c/L	8eee-\L	.
8f/ 8a-/ 8bn/	8ddd\	.
8f/ 8a-/ 8b/	8ccc\	.
8f/ 8a-/ 8b/J	8bbn\J)	.
=67	=67	=67
8c/L	(8ddd\L	.
8e-/ 8g/	8ccc\J)	.
8e-/ 8g/	8r	.
8e-/ 8g/J	(8cc\	.
8c/L	20bn\LL	.
.	20cc\	.
.	20cc#\	.
8en/ 8g/ 8b-/	.	.
.	20dd\	.
.	20ee-\JJ	.
8e/ 8g/ 8b-/	16ee-\LL	.
.	16ff\	.
8e/ 8g/ 8b-/J	16ff#\	.
.	16gg\JJ)	.
=68	=68	=68
8c/L	(16aa-\LL	.
.	16aan\	.
8f/ 8a-/	16bb-\	.
.	16bbn\JJ	.
8f/ 8a-/	8ccc\L	.
8f/ 8a-/J	8fff\J	.
8c/L	8eee-\L	.
8f/ 8a-/ 8bn/	8ddd\	.
8f/ 8a-/ 8b/	8ccc\	.
8f/ 8a-/ 8b/J	8bb\J)	.
=69	=69	=69
4c/ 4e-/ 4g/ 4cc/	(16ccc\LL	<
.	16ddd\	.
.	16ccc\	.
.	16bbn\JJ	.
8r	16ccc\LL	.
.	16eee-\	.
*clefF4	*	*
(8f#\	16ddd\	.
.	16ccc\JJ	.
4g\)	16bb\LL	.
.	16ccc\	.
.	16bb\	.
.	16aa-\JJ	.
8r	16gg\LL	.
.	16ff\	.
(8Bn\	16ee-\	.
.	16dd\JJ)	.
=70	=70	=70
4c\)	16cc\LL	.
.	16dd\	.
.	16cc\	.
.	16bn\JJ	.
8r	16cc\LL	.
.	16ee-\	.
(8F#\	16dd\	.
.	16cc\JJ	.
4G\)	16b\LL	.
.	16cc\	.
.	16b\	.
.	16a-\JJ	.
8r	16g/LL	.
.	16f/	.
(8BBn/	16e-/	.
.	16d/JJ	.
=71	=71	=71
4C/)	16c/LL	.
.	16d/	.
.	16c/	.
.	16Bn/JJ	.
8r	16c/LL	.
.	16e-/	.
(8FF#/	16d/	.
.	16c/JJ	.
4GG/)	16B/LL	f
.	16g/	.
.	16d/	.
.	16B/JJ	.
4CC'/ 4C'/	16G'/LL	f
.	16g/	.
.	16e-/	.
.	16c/JJ	.
=72	=72	=72
4GGG'/ 4GG'/	16G'/LL	.
.	16g/	.
.	16d/	.
.	16Bn/JJ	.
4CC'/ 4C'/	16G'/LL	.
.	16g/	.
.	16e-/	.
.	16c/JJ	.
4GGG'/ 4GG'/	16G/LL	.
.	16g/	.
.	16d/	.
.	16B/JJ	.
4CC'/ 4C'/	16G'/LL	.
.	16g/	.
.	16e-/	.
.	16c/JJ	.
=73	=73	=73
2GGG;/ 2BBBn;/ 2DD;/ 2GG;/	2G;/ 2Bn;/ 2d;/ 2g;/	ff
2r	8r	.
.	8g'/L	p
.	8an'/	.
.	8bn'/J	.
=74	=74	=74
*	*^	*
2C\ 2G\ 2c\	8cc/L	2en\ 2g\	.
.	8dd/J	.	.
.	4een/	.	.
4F'\ 4G'\ 4Bn'\	4dd/	4d\ 4g\	.
4En'\ 4G'\ 4c'\	4cc/	4e\ 4g\	.
=75	=75	=75	=75
2D\ 2G\ 2d\	2ff/	2f\ 2g\ 2bn\	.
2r	8r	2r	.
.	8g'/L	.	.
.	8an'/	.	.
.	8b'/J	.	.
=76	=76	=76	=76
2C\ 2G\ 2c\	8cc/L	2en\ 2g\	.
.	8dd/J	.	.
.	4een/	.	.
4F'\ 4An'\	4d'/ 4an'/ 4dd'/	2r	.
4F#'\ 4A'\	4d'/ 4a'/ 4cc'/	.	.
*	*v	*v	*
=77	=77	=77
2GG/ 2G/	2Bn/ 2d/ 2g/	.
2r	8r	.
.	8g'/L	.
.	8an'/	.
.	8bn'/J	.
=78	=78	=78
*	*^	*
2C\ 2G\ 2c\	8cc/L	2en\ 2g\	.
.	8dd/J	.	.
.	4een/	.	.
4F'\ 4G'\ 4Bn'\	4dd/	4d\ 4g\	.
4En'\ 4G'\ 4c'\	4cc/	4e\ 4g\	.
*	*v	*v	*
=79	=79	=79
!	!anq/LLL	!.
!	!ccq/	!.
!	!ffq/JJJ	!.
4F\ 4An\ 4c\ 4f\	[2aan\	.
4r	.	.
2r	8aa\L]	.
.	8aa'\	.
.	8gg'\	.
.	8ff'\J	.
=80	=80	=80
*^	*^	*
1G	2r	(8een/L	2r	.
.	.	8dd/)	.	.
.	.	8cc/	.	.
.	.	8bn/J	.	.
.	8r	(4an/	2d\ 2f\	.
.	8GG'\L	.	.	.
.	8AAn'\	4g/)	.	.
.	8BBn'\J	.	.	.
=81	=81	=81	=81	=81
1G	8C'\L	2g/	2c\ 2en\	.
.	8D'\J	.	.	.
.	4En'\	.	.	.
.	4D\	8r	2r	.
.	.	8gg/L	.	.
.	4C\	8ff/	.	.
.	.	8een/J	.	.
=82	=82	=82	=82	=82
1G	2r	(8een/L	2r	.
.	.	8dd/	.	.
.	.	8cc/)	.	.
.	.	8bn/J	.	.
.	8r	4a-/	2d\ 2f\	.
.	8GG'\L	.	.	.
.	8AAn'\	4g/	.	.
.	8BBn'\J	.	.	.
=83	=83	=83	=83	=83
1G	8C'\L	2g/	2c\ 2e-\	.
.	8D'\J	.	.	.
.	4E-'\	.	.	.
.	4D\	8r	2r	.
.	.	8g'\ 8gg'\L	.	.
.	4C\	8f'\ 8ff'\	.	.
.	.	8e-'\ 8ee-'\J	.	.
*v	*v	*	*	*
*	*v	*v	*
=84	=84	=84
4FF/ 4AA-/ 4D/ 4F/	(8e-/ 8ee-/L	.
.	8d/) 8dd/	.
4r	8c'/ 8cc'/	.
.	8Bn'/ 8bn'/J	.
4GG/ 4BBn/ 4D/ 4F/	8A-'/ 8a-'/L	.
.	8G'/ 8g'/	.
4r	8An'/ 8an'/	.
.	8B'/ 8b'/J	.
=85	=85	=85
8C\ 8E-\L	4c/ 4cc/	.
8G\	.	.
8G\	8r	.
8G\J	(8cc\	<
8G\L	8bn\L	.
8G\	8cc\)	.
8BBn\	8dd'\ 8ff'\	.
8G\J	8dd'\ 8ff'\J	.
=86	=86	=86
8C\L	4cc\ 4ee-\	.
8G\	.	.
8G\	8r	.
8G\J	(8cc\	.
8G\L	8bn\L	.
8G\	8cc\)	.
8BBn\	8ff'\ 8aa-'\	.
8G\J	8ff'\ 8aa-'\J	.
=87	=87	=87
8C\L	4ee-\ 4gg\	.
8G\	.	.
8G\	8r	.
8G\J	(8ccc\	.
8G\L	8bbn\L	.
8G\	8ccc\)	.
8BB-\ 8D\ 8F\ 8G\	8ddd'\ 8fff'\	.
8BB-\ 8D\ 8F\ 8G\J	8ddd'\ 8fff'\J	.
=88	=88	=88
1BBn 1D 1G	4ddd\ [4fff\	ff
.	(16fff\LL]	.
.	16eee-\	.
.	16ddd\	.
.	16ccc\JJ	.
.	16bbn\LL	.
.	16ccc\	.
.	16ddd\	.
.	16ccc\JJ	.
.	16bb\LL	.
.	16aa-\	.
.	16gg\	.
.	16ff\JJ)	.
=89	=89	=89
4C\ 4E-\ 4G\	12ee-\L	.
.	12ff\	.
.	12gg\J	.
4r	12ff\L	.
.	12ee-\	.
.	12dd\J	.
2r	12cc\L	.
.	12b-\	.
.	12a-\J	.
.	12g/L	.
.	12f/	.
.	12e-/J	.
=90	=90	=90
4FF'/	16r	.
.	(16d/LL	.
.	16f/	.
.	16a-/JJ	.
8r	4dd'\)	.
8F'\	.	.
4GG'/	16r	.
.	(16Bn/LL	.
.	16d/	.
.	16f/JJ	.
8r	4bn'\)	.
8G'\	.	.
*clefG2	*	*
=91	=91	=91
8r	16bn\LL	ff
.	16bbn\	.
(16f/LL	16b\	.
16g/JJ	16bb\JJ	.
16a-/LL	16b\LL	.
16g/	16bb\	.
16f/	16b\	.
16e-/JJ)	16bb\JJ	.
*clefF4	*	*
12d\L	16b\LL	.
.	16bb\	.
12c\	.	.
.	16b\	.
12Bn\J	.	.
.	16bb\JJ	.
12A-\L	16b\LL	.
.	16bb\	.
12G\	.	.
.	16b\	.
12F\J	.	.
.	16bb\JJ	.
=92	=92	=92
12E-\L	16cc\LL	.
.	16ccc\	.
12F\	.	.
.	16cc\	.
12G\J	.	.
.	16ccc\JJ	.
12F\L	16cc\LL	.
.	16ccc\	.
12E-\	.	.
.	16cc\	.
12D\J	.	.
.	16ccc\JJ	.
12C/L	16cc\LL	.
.	16ccc\	.
12BBn/	.	.
.	16cc\	.
12AA-/J	.	.
.	16ccc\JJ	.
12GG/L	16cc\LL	.
.	16ccc\	.
12FF/	.	.
.	16cc\	.
12EE-/J	.	.
.	16ccc\JJ	.
=93	=93	=93
4FFF'/ 4FF'/	16r	.
.	(16ff\LL	.
.	16aa-\	.
.	16ddd\JJ	.
8r	4fff'\)	.
8FFF'/ 8FF'/	.	.
4GGG'/ 4GG'/	16r	.
.	(16dd\LL	.
.	16ff\	.
.	16bbn\JJ	.
8r	4ddd'\)	.
8GGG'/ 8GG'/	.	.
=94	=94	=94
4CC'/ 4EE-'/ 4GG'/ 4C'/	4cc'\ 4ee-'\ 4gg'\ 4ccc'\	.
*clefG2	*	*
8c#'/ 8en'/L	8gg'\L	ff
8c#'/ 8e'/J	8gg'\J	.
4d'/ 4f'/	4gg'\	.
8c#'/ 8e'/L	8gg'\L	.
8c#'/ 8e'/J	8gg'\J	.
=95	=95	=95
4d'/ 4f'/	4gg'\	.
*clefF4	*clefF4	*clefF4
4GGG'/ 4GG'/	4D'\ 4F'\ 4Bn'\	f
4r	4r	.
4GGG'/ 4GG'/	4D'\ 4F'\ 4B'\	p
=96	=96	=96
4AAA-'/ 4AA-'/	4C'\ 4E-'\ 4c'\	.
4FFF#'/ 4FF#'/	4An'\ 4c'\ 4d'\	.
4GGG'/ 4GG'/	4G'\ 4c'\ 4e-'\	.
4GGG'/ 4GG'/	4F'\ 4Bn'\ 4d'\	.
=97	=97	=97
4CC'/ 4C'/	4E-'\ 4G'\ 4c'\	.
*clefG2	*clefG2	*clefG2
8c#'/ 8en'/L	(16gg\LL	ff
.	16aa-\	.
8c#'/ 8e'/J	16gg\	.
.	16ff#\JJ)	.
4d'/ 4f'/	4gg'\	.
8c#'/ 8e'/L	(16gg\LL	.
.	16aa-\	.
8c#'/ 8e'/J	16gg\	.
.	16ff#\JJ)	.
=98	=98	=98
4d'/ 4f'/	4gg'\	.
*clefF4	*clefF4	*clefF4
4GGG'/ 4GG'/	4D'\ 4F'\ 4Bn'\	.
4r	4r	.
[4AAA-/ [4CC/ [4EE-/ [4AA-/	[4C\ [4E-\ [4F#\ [4c\	ff
=99	=99	=99
4AAA-/] 4CC/] 4EE-/] 4AA-/]	4C\] 4E-\] 4F#\] 4c\]	.
4FFF#'/ 4FF#'/	4An'\ 4c'\ 4d'\	p
4GGG'/ 4GG'/	4G'\ 4c'\ 4e-'\	.
4GGG'/ 4GG'/	4Fn'\ 4Bn'\ 4d'\	.
=100	=100	=100
(8CC/L	4E-\ 4G\ 4c\	.
8C/J)	.	.
4r	(8DDn/ 8AA-/L	.
.	8EE-/) 8GG/J	.
(8CC/L	4r	.
8C/J)	.	.
4r	(8AA-/ 8Dn/L	.
.	8GG/) 8E-/J	.
=101	=101	=101
*	*clefG2	*clefG2
(8CC/L	4r	.
8C/J)	.	.
4r	8bn\ (8ff\L	.
.	8cc\ 8ee-\J)	.
(8CC/L	4r	.
8C/J)	.	.
4r	8ff\ (8bbn\L	.
.	8ee-\ 8ccc\J)	.
=102	=102	=102
(8AAA-/L	4r	.
8AA-/J)	.	.
4r	(8c/ 8g-/L	<
.	8d-/) 8f/J	.
(8AAA-/L	4r	.
8AA-/J)	.	.
4r	(8f/ 8dd-/L	.
.	8g-/) 8cc/J	.
=103	=103	=103
(8AAA-/L	4r	.
8AA-/J)	.	.
4r	8dd-\ (8ff\L	.
.	8cc\ 8gg-\J)	.
(8AAA-/L	4r	.
8AA-/J)	.	.
4r	8ff\ (8ddd-\L	.
.	8gg-\ 8ccc\J)	.
=104	=104	=104
[1AAA- [1AA-	1gg- 1eee-	.
=105	=105	=105
*	*^	*
1AAA-_ 1AA-_	(4ddd-/	2ee-\	.
.	4ccc/	.	.
.	4bb-/	2cc\	.
.	4aa-/)	.	.
*	*v	*v	*
=106	=106	=106
!	!ffq/LL	!.
!	!gg-q/	!.
!	!aa-q/JJ	!.
*	*^	*
2AAA-;/] 2AA-;/]	2gg-;/	2cc;\	pp
2r	8r	2r	.
*	*clefF4	*clefF4	*
.	(8A-'/L	.	.
.	8B-'/	.	.
.	8c'/J)	.	.
=107	=107	=107	=107
2DD-/ 2D-/	(8d-/L	2F\ 2A-\	.
.	8e-/J	.	.
.	4f/)	.	.
(4GG-'/ 4C'/	2r	4A-'\ (4e-'\	.
4FF'/) 4D-'/	.	4A-'\ 4d-'\)	.
*	*v	*v	*
=108	=108	=108
[2AA-/ [2E-/	[2G-\ [2A-\ [2c\ [2g-\	.
8AA-/] 8E-/]	8G-\] 8A-\] 8c\] 8g-\]	.
8r	(8A-/L	.
4r	8B-/	.
.	8c/J)	.
=109	=109	=109
*	*^	*
2DD-/ 2D-/	(8d-/L	2F\ 2A-\	.
.	8e-/J	.	.
.	4f/)	.	.
(4GGG-'/ 4GG-'/	2r	4E-'\ 4B-'\ (4e-'\	.
4GGGn'/) 4GGn'/	.	4E-'\ 4B-'\ 4d-'\)	.
*	*v	*v	*
=110	=110	=110
2AAA-/ 2AA-/	2C\ 2E-\ 2A-\	.
2r	8r	.
.	(8A-/L	.
.	8B-/	.
.	8c/J)	.
=111	=111	=111
*	*^	*
2DD-/ 2D-/	(8d-/L	2F\ 2A-\	.
.	8e-/J	.	.
.	4f/)	.	.
(4GG-'/ 4C'/	2r	4A-'\ (4e-'\	.
4FF'/) 4D-'/	.	4A-'\ 4d-'\)	.
=112	=112	=112	=112
1AA-; 1C; 1E-;	4.g-/	[2G-\ [2A-\ 2c\	.
.	8e-/	.	.
.	2c;/	2G-\] 2A-\]	.
=113	=113	=113	=113
1AA-; 1C; 1E-;	4.f#/	[2F#\ [2A-\ 2c\	.
.	8e-/	.	.
.	2c;/	2F#\] 2A-\]	.
*	*v	*v	*
=114	=114	=114
2r	8g'\L	.
.	8e-'\	.
.	8c'\	.
.	8G'\J	.
4r	8E-'/L	.
.	8C'/	.
4GGG/ 4GG/	8BBn'/	.
.	8D'/J	.
=115	=115	=115
8CC/L	8C/	.
8C/	8r	.
8C/	4r	.
8C/J	.	.
8C\L	8r	.
*	*clefG2	*clefG2
8G\ 8B-\	8c'/L	p
8G\ 8B-\	8d'/	.
8G\ 8B-\J	8en'/J	.
=116	=116	=116
8C\L	8f'/L	.
8F\ 8A-\	8g'/	.
8F\ 8A-\	8a-'/J	.
8F\ 8A-\J	(8ccc\	.
8C\L	8bbn\L	.
8F\ 8A-\ 8Bn\	8ccc\)	.
8F\ 8A-\ 8B\	8fff'\	.
8F\ 8A-\ 8B\J	8fff'\J	.
=117	=117	=117
8C\L	4eeen'\	.
8En\ 8G\ 8c\	.	.
8E\ 8G\ 8c\	4r	.
8E\ 8G\ 8c\J	.	.
8C\L	8r	.
8G\ 8B-\	8c'/L	.
8G\ 8B-\	8d'/	.
8G\ 8B-\J	8en'/J	.
=118	=118	=118
8C\L	8f'/L	.
8F\ 8A-\	8g'/	.
8F\ 8A-\	8a-'/J	.
8F\ 8A-\J	(8ccc\	.
8C\L	8bbn\L	.
8F\ 8A-\ 8Bn\	8ccc\)	.
8F\ 8A-\ 8B\	8fff'\	.
8F\ 8A-\ 8B\J	8fff'\J	.
=119	=119	=119
8C\L	4eeen'\	.
8En\ 8G\ 8c\	.	.
8E\ 8G\ 8c\	8r	.
8E\ 8G\ 8c\J	(8cc\	>
8C\L	8bn\L	.
8F\ 8A-\ 8Bn\	8cc\)	.
8F\ 8A-\ 8B\	8ff'\	.
8F\ 8A-\ 8B\J	8ff'\J	.
=120	=120	=120
8C\L	4een'\	.
8En\ 8G\ 8c\	.	.
8E\ 8G\ 8c\	8r	.
8E\ 8G\ 8c\J	(8c/	.
8C\L	8Bn/L	.
8F\ 8A-\ 8Bn\	8c/)	.
8F\ 8A-\ 8B\	8f'/	.
8F\ 8A-\ 8B\J	8f'/J	.
=121	=121	=121
8C\L	4en'/	.
8En\ 8G\ 8c\	.	.
8E\ 8G\ 8c\	8r	.
*	*clefF4	*clefF4
8E\ 8G\ 8c\J	8CC/	.
8C\L	4CC/	.
8E\ 8G\ 8c\	.	.
8E\ 8G\ 8c\	8r	.
8E\ 8G\ 8c\J	8CC/	.
=122	=122	=122
4C\ 4En\ 4G\	4CC/	p
8r;	8r;	.
==	==	==
*-	*-	*-
!!!ENC: Craig Stuart Sapp
!!!END: 2008/02/25/
!!!hum2abc: --spacing 1.63  -s 0.761
